groups/oxygen/boc-tert-butyloxycarbonyl.svg

<?xml version='1.0' encoding='iso-8859-1'?>
<svg version='1.1' baseProfile='full'
              xmlns='http://www.w3.org/2000/svg'
                      xmlns:rdkit='http://www.rdkit.org/xml'
                      xmlns:xlink='http://www.w3.org/1999/xlink'
                  xml:space='preserve'
width='256px' height='256px' viewBox='0 0 256 256'>
<!-- END OF HEADER -->
<rect style='opacity:1.0;fill:#FFFFFF;stroke:none' width='256.0' height='256.0' x='0.0' y='0.0'> </rect>
<path class='bond-0 atom-0 atom-1' d='M 25.5,156.7 L 69.3,131.4' style='fill:none;fill-rule:evenodd;stroke:#000000;stroke-width:2.0px;stroke-linecap:butt;stroke-linejoin:miter;stroke-opacity:1' />
<path class='bond-1 atom-1 atom-2' d='M 73.1,133.6 L 73.0,97.6' style='fill:none;fill-rule:evenodd;stroke:#000000;stroke-width:2.0px;stroke-linecap:butt;stroke-linejoin:miter;stroke-opacity:1' />
<path class='bond-1 atom-1 atom-2' d='M 65.5,133.6 L 65.4,97.6' style='fill:none;fill-rule:evenodd;stroke:#000000;stroke-width:2.0px;stroke-linecap:butt;stroke-linejoin:miter;stroke-opacity:1' />
<path class='bond-2 atom-1 atom-3' d='M 69.3,131.4 L 102.3,150.4' style='fill:none;fill-rule:evenodd;stroke:#000000;stroke-width:2.0px;stroke-linecap:butt;stroke-linejoin:miter;stroke-opacity:1' />
<path class='bond-3 atom-3 atom-4' d='M 123.9,150.4 L 156.9,131.3' style='fill:none;fill-rule:evenodd;stroke:#000000;stroke-width:2.0px;stroke-linecap:butt;stroke-linejoin:miter;stroke-opacity:1' />
<path class='bond-4 atom-4 atom-5' d='M 156.9,131.3 L 141.3,104.4' style='fill:none;fill-rule:evenodd;stroke:#000000;stroke-width:2.0px;stroke-linecap:butt;stroke-linejoin:miter;stroke-opacity:1' />
<path class='bond-5 atom-4 atom-6' d='M 156.9,131.3 L 172.5,104.3' style='fill:none;fill-rule:evenodd;stroke:#000000;stroke-width:2.0px;stroke-linecap:butt;stroke-linejoin:miter;stroke-opacity:1' />
<path class='bond-6 atom-4 atom-7' d='M 156.9,131.3 L 190.0,150.4' style='fill:none;fill-rule:evenodd;stroke:#000000;stroke-width:2.0px;stroke-linecap:butt;stroke-linejoin:miter;stroke-opacity:1' />
<path d='M 67.1,132.7 L 69.3,131.4 L 70.9,132.4' style='fill:none;stroke:#000000;stroke-width:2.0px;stroke-linecap:butt;stroke-linejoin:miter;stroke-miterlimit:10;stroke-opacity:1;' />
<path class='atom-1' d='M38.133,178.631 C39.7756,177.681 38.5089,175.491 36.8664,176.441 C35.2238,177.391 33.9571,175.201 35.5997,174.251 C37.2423,173.301 35.9756,171.111 34.3331,172.06 C32.6905,173.01 31.4238,170.82 33.0664,169.87 C34.709,168.92 33.4423,166.73 31.7998,167.68 C30.1572,168.63 28.8905,166.44 30.5331,165.49 C32.1757,164.54 30.909,162.35 29.2665,163.3 C27.6239,164.25 26.3572,162.059 27.9998,161.109 C29.6424,160.16 28.3757,157.969 26.7332,158.919 C25.0906,159.869 23.8239,157.679 25.4665,156.729 C27.1091,155.779 25.8424,153.589 24.1999,154.539 C22.5573,155.489 21.2906,153.299 22.9332,152.349 C24.5758,151.399 23.3091,149.209 21.6666,150.158 C20.024,151.108 18.7573,148.918 20.3999,147.968 C22.0425,147.018 20.7758,144.828 19.1333,145.778 C17.4907,146.728 16.224,144.538 17.8666,143.588 C19.5092,142.638 18.2425,140.448 16.6,141.398 C14.9574,142.348 13.6907,140.157 15.3333,139.207 C16.9759,138.258 15.7092,136.067 14.0667,137.017 C12.4241,137.967 11.1574,135.777 12.8,134.827' style='fill:none;stroke:#7F7F7F;stroke-width:2.0px;stroke-linecap:butt;stroke-linejoin:miter;stroke-opacity:1' />
<text x='60.1' y='96.0' class='atom-2' style='font-size:30px;font-style:normal;font-weight:normal;fill-opacity:1;stroke:none;font-family:sans-serif;text-anchor:start;fill:#000000' >O</text>
<text x='104.0' y='171.8' class='atom-3' style='font-size:30px;font-style:normal;font-weight:normal;fill-opacity:1;stroke:none;font-family:sans-serif;text-anchor:start;fill:#000000' >O</text>
<text x='91.8' y='102.7' class='atom-5' style='font-size:30px;font-style:normal;font-weight:normal;fill-opacity:1;stroke:none;font-family:sans-serif;text-anchor:start;fill:#000000' >H</text>
<text x='112.7' y='114.9' class='atom-5' style='font-size:20px;font-style:normal;font-weight:normal;fill-opacity:1;stroke:none;font-family:sans-serif;text-anchor:start;fill:#000000' >3</text>
<text x='122.5' y='102.7' class='atom-5' style='font-size:30px;font-style:normal;font-weight:normal;fill-opacity:1;stroke:none;font-family:sans-serif;text-anchor:start;fill:#000000' >C</text>
<text x='173.1' y='102.7' class='atom-6' style='font-size:30px;font-style:normal;font-weight:normal;fill-opacity:1;stroke:none;font-family:sans-serif;text-anchor:start;fill:#000000' >C</text>
<text x='194.0' y='102.7' class='atom-6' style='font-size:30px;font-style:normal;font-weight:normal;fill-opacity:1;stroke:none;font-family:sans-serif;text-anchor:start;fill:#000000' >H</text>
<text x='215.0' y='114.8' class='atom-6' style='font-size:20px;font-style:normal;font-weight:normal;fill-opacity:1;stroke:none;font-family:sans-serif;text-anchor:start;fill:#000000' >3</text>
<text x='191.6' y='171.8' class='atom-7' style='font-size:30px;font-style:normal;font-weight:normal;fill-opacity:1;stroke:none;font-family:sans-serif;text-anchor:start;fill:#000000' >C</text>
<text x='212.6' y='171.8' class='atom-7' style='font-size:30px;font-style:normal;font-weight:normal;fill-opacity:1;stroke:none;font-family:sans-serif;text-anchor:start;fill:#000000' >H</text>
<text x='233.5' y='183.9' class='atom-7' style='font-size:20px;font-style:normal;font-weight:normal;fill-opacity:1;stroke:none;font-family:sans-serif;text-anchor:start;fill:#000000' >3</text>
</svg>

<svg height="256" viewBox="0 0 256 256" width="256" xmlns="http://www.w3.org/2000/svg"><path d="m0 0h256v256h-256z" fill="#fff"/><path d="m25.5 156.7 43.8-25.3" fill="none" stroke="#000" stroke-width="2"/><path d="m73.1 133.6-.1-36" fill="none" stroke="#000" stroke-width="2"/><path d="m65.5 133.6-.1-36" fill="none" stroke="#000" stroke-width="2"/><path d="m69.3 131.4 33 19" fill="none" stroke="#000" stroke-width="2"/><path d="m123.9 150.4 33-19.1" fill="none" stroke="#000" stroke-width="2"/><path d="m156.9 131.3-15.6-26.9" fill="none" stroke="#000" stroke-width="2"/><path d="m156.9 131.3 15.6-27" fill="none" stroke="#000" stroke-width="2"/><path d="m156.9 131.3 33.1 19.1" fill="none" stroke="#000" stroke-width="2"/><path d="m67.1 132.7 2.2-1.3 1.6 1" fill="none" stroke="#000" stroke-miterlimit="10" stroke-width="2"/><path d="m38.133 178.631c1.643-.95.376-3.14-1.267-2.19-1.642.95-2.909-1.24-1.266-2.19 1.642-.95.376-3.14-1.267-2.191-1.642.95-2.909-1.24-1.267-2.19 1.643-.95.376-3.14-1.266-2.19-1.643.95-2.909-1.24-1.267-2.19 1.643-.95.376-3.14-1.266-2.19-1.643.95-2.91-1.241-1.267-2.191 1.642-.949.376-3.14-1.267-2.19-1.642.95-2.909-1.24-1.266-2.19 1.642-.95.375-3.14-1.267-2.19-1.643.95-2.909-1.24-1.267-2.19 1.643-.95.376-3.14-1.266-2.191-1.643.95-2.91-1.24-1.267-2.19s.376-3.14-1.267-2.19c-1.642.95-2.909-1.24-1.266-2.19 1.642-.95.376-3.14-1.267-2.19s-2.909-1.241-1.267-2.191c1.643-.949.376-3.14-1.266-2.19-1.643.95-2.91-1.24-1.267-2.19" fill="none" stroke="#7f7f7f" stroke-width="2"/><g font-family="sans-serif"><text font-size="30" x="60.1" y="96">O</text><text font-size="30" x="104" y="171.8">O</text><text font-size="30" x="91.8" y="102.7">H</text><text font-size="20" x="112.7" y="114.9">3</text><text font-size="30" x="122.5" y="102.7">C</text><text font-size="30" x="173.1" y="102.7">C</text><text font-size="30" x="194" y="102.7">H</text><text font-size="20" x="215" y="114.8">3</text><text font-size="30" x="191.6" y="171.8">C</text><text font-size="30" x="212.6" y="171.8">H</text><text font-size="20" x="233.5" y="183.9">3</text></g></svg>
